resources/icons/20px/paste-variable.svg

<svg width="20" height="20" viewBox="0 0 20 20" fill="none" xmlns="http://www.w3.org/2000/svg">
<path d="M12 1.00001C12.55 1.00001 13 1.45001 13 2.00001V4.00001H6V2.00001C6 1.45001 6.45 1.00001 7 1.00001H7.78C7.95306 0.696525 8.20333 0.444234 8.50542 0.268747C8.8075 0.0932595 9.15064 0.000823975 9.5 0.000823975C9.84936 0.000823975 10.1925 0.0932595 10.4946 0.268747C10.7967 0.444234 11.0469 0.696525 11.22 1.00001H12Z" fill="black"/>
<path d="M14 2.00001H16C16.55 2.00001 17 2.45001 17 3.00001V19C17 19.55 16.55 20 16 20H3C2.45 20 2 19.55 2 19V3.00001C2 2.45001 2.45 2.00001 3 2.00001H5V5.00001H14V2.00001ZM13.931 14.492C13.544 15.023 13.251 15.348 13.074 15.475C12.9419 15.5562 12.789 15.5971 12.634 15.593C12.435 15.593 12.236 15.475 12.038 15.229C11.713 14.817 11.273 13.666 10.718 11.787C11.21 10.951 11.618 10.4 11.964 10.144C12.204 9.95701 12.466 9.85901 12.738 9.85901C12.843 9.85901 13.031 9.89801 13.293 9.96701C13.565 10.036 13.795 10.075 14.005 10.075C14.1366 10.0777 14.2673 10.0538 14.3895 10.0049C14.5117 9.95589 14.6227 9.88282 14.716 9.79001C14.9047 9.60267 14.999 9.35667 14.999 9.05201C14.999 8.72801 14.905 8.48201 14.716 8.29501C14.528 8.10801 14.256 8.01001 13.9 8.01001C13.586 8.01001 13.283 8.07801 13 8.22601C12.717 8.37401 12.362 8.68901 11.932 9.18001C11.608 9.54401 11.126 10.184 10.498 11.089C10.2581 9.98857 9.8181 8.94154 9.2 8.00001L5.811 8.58001L5.748 8.93401C5.999 8.88601 6.208 8.86601 6.386 8.86601C6.54949 8.86342 6.71116 8.90056 6.85713 8.97424C7.0031 9.04792 7.12899 9.15593 7.224 9.28901C7.569 9.73101 8.061 11.059 8.678 13.291C8.186 13.921 7.862 14.334 7.674 14.531C7.381 14.846 7.129 15.053 6.941 15.141C6.794 15.219 6.627 15.249 6.439 15.249C6.292 15.249 6.062 15.171 5.737 15.023C5.51767 14.9243 5.319 14.875 5.141 14.875C4.83778 14.8682 4.54414 14.9814 4.324 15.19C4.105 15.397 4 15.662 4 15.977C3.99464 16.1137 4.01795 16.2499 4.06841 16.377C4.11887 16.5041 4.19537 16.6192 4.293 16.715C4.492 16.902 4.754 17 5.089 17C5.40291 17 5.7132 16.9328 5.999 16.803C6.282 16.675 6.637 16.39 7.066 15.957C7.496 15.525 8.092 14.846 8.846 13.912C9.139 14.797 9.389 15.446 9.599 15.849C9.809 16.252 10.06 16.547 10.332 16.725C10.6047 16.9017 10.95 16.99 11.368 16.99C11.766 16.9913 12.1743 16.8507 12.593 16.568C13.158 16.213 13.713 15.584 14.278 14.688L13.932 14.492" fill="black"/>
</svg>

<svg xmlns="http://www.w3.org/2000/svg" viewBox="0 0 20 20">
  <path d="M12 1c.55 0 1 .45 1 1v2H6V2c0-.55.45-1 1-1h.78a1.98 1.98 0 0 1 3.44 0z"/>
  <path d="M14 2h2c.55 0 1 .45 1 1v16c0 .55-.45 1-1 1H3c-.55 0-1-.45-1-1V3c0-.55.45-1 1-1h2v3h9zm-.069 12.492c-.387.531-.68.856-.857.983a.8.8 0 0 1-.44.118c-.199 0-.398-.118-.596-.364-.325-.412-.765-1.563-1.32-3.442.492-.836.9-1.387 1.246-1.643a1.25 1.25 0 0 1 .774-.285c.105 0 .293.039.555.108.272.069.502.108.712.108a.98.98 0 0 0 .711-.285q.283-.28.283-.738c0-.324-.094-.57-.283-.757s-.46-.285-.816-.285c-.314 0-.617.068-.9.216s-.638.463-1.068.954c-.324.364-.806 1.004-1.434 1.909A9.2 9.2 0 0 0 9.2 8l-3.389.58-.063.354a3.4 3.4 0 0 1 .638-.068 1.01 1.01 0 0 1 .838.423c.345.442.837 1.77 1.454 4.002-.492.63-.816 1.043-1.004 1.24-.293.315-.545.522-.733.61a1.05 1.05 0 0 1-.502.108c-.147 0-.377-.078-.702-.226a1.5 1.5 0 0 0-.596-.148 1.15 1.15 0 0 0-.817.315 1.04 1.04 0 0 0-.324.787.98.98 0 0 0 .293.738c.199.187.461.285.796.285a2.2 2.2 0 0 0 .91-.197c.283-.128.638-.413 1.067-.846.43-.432 1.026-1.111 1.78-2.045.293.885.543 1.534.753 1.937s.461.698.733.876q.41.265 1.036.265.597.001 1.225-.422c.565-.355 1.12-.984 1.685-1.88l-.346-.196"/>
</svg>
